X: 34777
T: Road To Rossmore, The
R: reel
M: 4/4
K: Gmajor
|:GA|B2BA BcdB|G2GE D2EG|A2AG ABAG|FGEG D2GA|
B2BA BcdB|GAGE D2EG|A2AB cAFG|(3ABA GF GD:|
Bc|d~B3 g2fg|feee e2AB|c~A3 f2f2|edd^c d2B=c|
d~B3 g2fg|feee e2Bc|dBAB cAFG|(3ABA GF G2Bc|
d~B3 g2fg|feee e2AB|c~A3 f2f2|edd^c d2B=c|
d~B3 g2fg|afgf A2AG|FGAB cAFG|(3ABA GF G2||

